X:1
T:An Eala Bhan -- The Fair Swan
M:6/8
L:1/8
Q:80
C:Arr. A Clark
S:Slow Air
K:HP
[| {g}A2{GdG}c{g}e2a | \
e/2f3/2e{gcd}c2{e}A | \
{g}B2{GdG}c{g}A2{GAG}A |
{g}A3A2e | \
A2{GAG}A{g}ce2 | \
{g}f3{ag}a2g |
{a}f2a{fg}f/2e3/2c | \
{g}e3e2A | \
A2{GAG}A{g}ce2 |
{g}f3{ag}a2g | \
{a}f2a{fg}f/2e3/2c | \
{g}e3e2a |
{g}A2{GdG}c{g}e2a | \
e/2f3/2e{gcd}c2{e}A | \
{g}B2{GdG}c{g}A2{GAG}A |
{g}A3A3|]
